;Generated with Cura_SteamEngine 15.01
;Startcode BIBO printers
G90 ; absolute mode
G21 ; metric values
M82 ; Extruder in absolute mode
M107
G91
G1 Z2 F100
G90
G28
G1 Z9 F100
M190 S30
M109 T0 S180
M109 T1 S180
T0
M302
G92 E0
G28
G1 Y0 F300 E0
G92 E0
T1
G92 E0					; reset extruder
M117 Purge Extruder 2
G1 Z2 F3000				; move z down little to prevent scratching of surface
G1 X-50.0 Y-92.9 Z0.3 F1500.0		; move to start-line position
G1 X50.0 Y-92.9 Z0.3 F1000.0 E10		; draw 1st line
G1 X50.0 Y-92.6 Z0.3 F3000.0		; move to side a little
G1 X-50.0 Y-92.6 Z0.3 F1000.0 E20		; draw 2nd line
G1 E4 F2000				; retract filament 1.5mm
G92 E0					; reset extruder

T0
G92 E0					; reset extruder
M117 Purge Extruder 1
G1 X-50.0 Y-92.3 Z0.3 F1500.0
G1 X50.0 Y-92.3 Z0.3 F1000.0 E10		; draw 1st line
G1 X50.0 Y-92 Z0.3 F3000.0		; move to side a little
G1 X-50.0 Y-92 Z0.3 F1000.0 E20		; draw 2nd line
G1 E19.5 F3000                          ; retract filament 0.5mm
G92 E0
M117 BIBO Printing...
;Layer count: 98
;LAYER:0
M107
G0 F6000 X4.400 Y1.900 Z0.300
;TYPE:WALL-INNER
G1 F1800 X-4.400 Y1.900 E0.43903
G1 X-4.400 Y-1.900 E0.62862
G1 X4.400 Y-1.900 E1.06765
G1 X4.400 Y1.900 E1.25723
G0 F6000 X4.800 Y2.300
;TYPE:WALL-OUTER
G1 F1800 X-4.800 Y2.300 E1.73618
G1 X-4.800 Y-2.300 E1.96567
G1 X4.800 Y-2.300 E2.44462
G1 X4.800 Y2.300 E2.67411
G0 F6000 X4.198 Y1.653
;TYPE:SKIN
G1 F1800 X0.845 Y-1.699 E2.91065
G0 F6000 X0.280 Y-1.699
G1 F1800 X3.679 Y1.699 E3.15043
G0 F6000 X3.114 Y1.699
G1 F1800 X-0.285 Y-1.699 E3.39022
G0 F6000 X-0.851 Y-1.699
G1 F1800 X2.548 Y1.699 E3.63000
G0 F6000 X1.982 Y1.699
G1 F1800 X-1.417 Y-1.699 E3.86978
G0 F6000 X-1.982 Y-1.699
G1 F1800 X1.417 Y1.699 E4.10956
G0 F6000 X0.851 Y1.699
G1 F1800 X-2.548 Y-1.699 E4.34935
G0 F6000 X-3.114 Y-1.699
G1 F1800 X0.285 Y1.699 E4.58913
G0 F6000 X-0.280 Y1.699
G1 F1800 X-3.679 Y-1.699 E4.82891
G0 F6000 X-4.198 Y-1.653
G1 F1800 X-0.845 Y1.699 E5.06545
G0 F6000 X-1.411 Y1.699
G1 F1800 X-4.198 Y-1.087 E5.26205
G0 F6000 X-4.198 Y-0.521
G1 F1800 X-1.977 Y1.699 E5.41872
G0 F6000 X-2.542 Y1.699
G1 F1800 X-4.198 Y0.043 E5.53556
G0 F6000 X-4.198 Y0.609
G1 F1800 X-3.108 Y1.699 E5.61247
G0 F6000 X-3.674 Y1.699
G1 F1800 X-4.198 Y1.175 E5.64944
G0 F6000 X1.411 Y-1.699
G1 F1800 X4.198 Y1.087 E5.84604
G0 F6000 X4.198 Y0.521
G1 F1800 X1.977 Y-1.699 E6.00271
G0 F6000 X2.542 Y-1.699
G1 F1800 X4.198 Y-0.043 E6.11955
G0 F6000 X4.198 Y-0.609
G1 F1800 X3.108 Y-1.699 E6.19645
G0 F6000 X3.674 Y-1.699
G1 F1800 X4.198 Y-1.175 E6.23342
G92 E0
G1 F3000 E-16.00000
G1 Z0.500

T1
G92 E-14.5
G0 F6000 X-8.000 Y5.500
;TYPE:SUPPORT
G1 Z0.300
G1 F3000 E0.00000
G1 F1800 X-8.000 Y15.500 E0.49890
G1 X-18.000 Y15.500 E0.99780
G1 X-18.000 Y5.500 E1.49671
G1 X-8.000 Y5.500 E1.99561
G0 F6000 X-8.358 Y5.500
G1 F1800 X-7.998 Y5.860 E2.02101
G0 F6000 X-7.998 Y6.426
G1 F1800 X-8.924 Y5.500 E2.08634
G0 F6000 X-9.490 Y5.500
G1 F1800 X-7.998 Y6.991 E2.19158
G0 F6000 X-7.998 Y7.557
G1 F1800 X-10.055 Y5.500 E2.33671
G0 F6000 X-10.621 Y5.500
G1 F1800 X-7.998 Y8.123 E2.52178
G0 F6000 X-7.998 Y8.688
G1 F1800 X-11.187 Y5.500 E2.74674
G0 F6000 X-11.752 Y5.500
G1 F1800 X-7.998 Y9.254 E3.01161
G0 F6000 X-7.998 Y9.820
G1 F1800 X-12.318 Y5.500 E3.31641
G0 F6000 X-12.884 Y5.500
G1 F1800 X-7.998 Y10.385 E3.66110
G0 F6000 X-7.999 Y10.950
G1 F1800 X-13.449 Y5.500 E4.04563
G0 F6000 X-14.015 Y5.500
G1 F1800 X-7.999 Y11.516 E4.47009
G0 F6000 X-7.999 Y12.082
G1 F1800 X-14.581 Y5.500 E4.93449
G0 F6000 X-15.146 Y5.500
G1 F1800 X-7.999 Y12.648 E5.43878
G0 F6000 X-7.999 Y13.213
G1 F1800 X-15.712 Y5.500 E5.98298
G0 F6000 X-16.278 Y5.500
G1 F1800 X-7.999 Y13.779 E6.56710
G0 F6000 X-7.999 Y14.345
G1 F1800 X-16.843 Y5.500 E7.19113
G0 F6000 X-17.409 Y5.500
G1 F1800 X-7.999 Y14.910 E7.85506
G0 F6000 X-7.999 Y15.476
G1 F1800 X-17.975 Y5.500 E8.55892
G0 F6000 X-17.999 Y6.042
G1 F1800 X-8.541 Y15.499 E9.22620
G0 F6000 X-9.107 Y15.499
G1 F1800 X-17.999 Y6.607 E9.85357
G0 F6000 X-17.999 Y7.173
G1 F1800 X-9.673 Y15.499 E10.44102
G0 F6000 X-10.238 Y15.499
G1 F1800 X-17.999 Y7.739 E10.98856
G0 F6000 X-17.999 Y8.304
G1 F1800 X-10.804 Y15.499 E11.49621
G0 F6000 X-11.370 Y15.499
G1 F1800 X-17.999 Y8.870 E11.96392
G0 F6000 X-17.999 Y9.436
G1 F1800 X-11.935 Y15.499 E12.39173
G0 F6000 X-12.501 Y15.499
G1 F1800 X-17.999 Y10.002 E12.77961
G0 F6000 X-17.999 Y10.567
G1 F1800 X-13.067 Y15.499 E13.12759
G0 F6000 X-13.633 Y15.499
G1 F1800 X-17.999 Y11.133 E13.43564
G0 F6000 X-17.999 Y11.699
G1 F1800 X-14.198 Y15.499 E13.70378
G0 F6000 X-14.764 Y15.499
G1 F1800 X-17.999 Y12.264 E13.93203
G0 F6000 X-17.999 Y12.830
G1 F1800 X-15.330 Y15.499 E14.12034
G0 F6000 X-15.895 Y15.499
G1 F1800 X-17.999 Y13.396 E14.26876
G0 F6000 X-17.999 Y13.961
G1 F1800 X-16.461 Y15.499 E14.37727
G0 F6000 X-17.027 Y15.499
G1 F1800 X-17.999 Y14.527 E14.44585
G0 F6000 X-17.999 Y15.093
G1 F1800 X-17.592 Y15.499 E14.47453
G0 F6000 X-13.000 Y10.500
;LAYER:1
M106 S7
G92 E0
G1 F3000 E-16.00000
G1 Z0.500

T0
G92 E-14.5
G0 F6000 X-8.000 Y5.500 Z0.400
;TYPE:SUPPORT
G1 Z0.400
G1 F3000 E0.00000
G1 F2040 X-8.000 Y15.500 E0.16630
G1 X-18.000 Y15.500 E0.33260
G1 X-18.000 Y5.500 E0.49890
G1 X-8.000 Y5.500 E0.66520
G0 F6000 X-8.045 Y5.499
G1 F2040 X-17.999 Y15.453 E0.89931
G0 F6000 X-17.480 Y15.500
G1 F2040 X-7.999 Y6.019 E1.12228
G0 F6000 X-7.999 Y6.585
G1 F2040 X-16.914 Y15.500 E1.33195
G0 F6000 X-16.349 Y15.500
G1 F2040 X-7.999 Y7.150 E1.52833
G0 F6000 X-7.999 Y7.716
G1 F2040 X-15.783 Y15.500 E1.71140
G0 F6000 X-15.217 Y15.500
G1 F2040 X-7.999 Y8.282 E1.88115
G0 F6000 X-7.999 Y8.848
G1 F2040 X-14.651 Y15.500 E2.03760
G0 F6000 X-14.086 Y15.500
G1 F2040 X-7.999 Y9.413 E2.18076
G0 F6000 X-7.999 Y9.979
G1 F2040 X-13.520 Y15.500 E2.31060
G0 F6000 X-12.954 Y15.500
G1 F2040 X-8.000 Y10.545 E2.42712
G0 F6000 X-8.000 Y11.111
G1 F2040 X-12.389 Y15.500 E2.53035
G0 F6000 X-11.823 Y15.500
G1 F2040 X-8.000 Y11.677 E2.62026
G0 F6000 X-8.000 Y12.242
G1 F2040 X-11.257 Y15.500 E2.69687
G0 F6000 X-10.692 Y15.500
G1 F2040 X-8.000 Y12.808 E2.76018
G0 F6000 X-8.000 Y13.374
G1 F2040 X-10.126 Y15.500 E2.81018
G0 F6000 X-9.560 Y15.500
G1 F2040 X-8.000 Y13.939 E2.84688
G0 F6000 X-8.000 Y14.505
G1 F2040 X-8.995 Y15.500 E2.87028
G0 F6000 X-8.429 Y15.500
G1 F2040 X-8.000 Y15.071 E2.88037
G0 F6000 X-8.611 Y5.499
G1 F2040 X-17.999 Y14.888 E3.10117
G0 F6000 X-17.999 Y14.322
G1 F2040 X-9.176 Y5.499 E3.30868
G0 F6000 X-9.742 Y5.499
G1 F2040 X-17.999 Y13.756 E3.50287
G0 F6000 X-17.999 Y13.191
G1 F2040 X-10.308 Y5.499 E3.68376
G0 F6000 X-10.873 Y5.499
G1 F2040 X-17.999 Y12.625 E3.85136
G0 F6000 X-17.999 Y12.059
G1 F2040 X-11.439 Y5.499 E4.00564
G0 F6000 X-12.005 Y5.499
G1 F2040 X-17.999 Y11.494 E4.14662
G0 F6000 X-17.999 Y10.928
G1 F2040 X-12.570 Y5.499 E4.27430
G0 F6000 X-13.136 Y5.499
G1 F2040 X-17.999 Y10.362 E4.38867
G0 F6000 X-17.999 Y9.796
G1 F2040 X-13.702 Y5.499 E4.48973
G0 F6000 X-14.268 Y5.499
G1 F2040 X-17.999 Y9.231 E4.57749
G0 F6000 X-17.999 Y8.665
G1 F2040 X-14.833 Y5.499 E4.65195
G0 F6000 X-15.399 Y5.499
G1 F2040 X-17.999 Y8.099 E4.71310
G0 F6000 X-17.999 Y7.534
G1 F2040 X-15.965 Y5.499 E4.76094
G0 F6000 X-16.530 Y5.499
G1 F2040 X-17.999 Y6.968 E4.79549
G0 F6000 X-17.999 Y6.402
G1 F2040 X-17.096 Y5.499 E4.81673
G0 F6000 X-17.662 Y5.499
G1 F2040 X-17.999 Y5.837 E4.82467
G1 F3000 E-0.17533
G1 Z0.600
G0 F6000 X-13.000 Y10.500
G0 X-4.400 Y1.900
;TYPE:WALL-INNER
G1 Z0.400
G1 F3000 E4.82467
G1 F2220 X-4.400 Y-1.900 E4.88786
G1 X4.400 Y-1.900 E5.03421
G1 X4.400 Y1.900 E5.09740
G1 X-4.400 Y1.900 E5.24374
G0 F6000 X-4.800 Y2.300
;TYPE:WALL-OUTER
G1 F1860 X-4.800 Y-2.300 E5.32024
G1 X4.800 Y-2.300 E5.47989
G1 X4.800 Y2.300 E5.55639
G1 X-4.800 Y2.300 E5.71604
G0 F6000 X-4.198 Y1.653
;TYPE:SKIN
G1 F1920 X-0.845 Y-1.699 E5.79488
G0 F6000 X-0.280 Y-1.699
G1 F1920 X-3.679 Y1.699 E5.87481
G0 F6000 X-3.114 Y1.699
G1 F1920 X0.285 Y-1.699 E5.95474
G0 F6000 X0.851 Y-1.699
G1 F1920 X-2.548 Y1.699 E6.03467
G0 F6000 X-1.982 Y1.699
G1 F1920 X1.417 Y-1.699 E6.11459
G0 F6000 X1.982 Y-1.699
G1 F1920 X-1.417 Y1.699 E6.19452
G0 F6000 X-0.851 Y1.699
G1 F1920 X2.548 Y-1.699 E6.27445
G0 F6000 X3.114 Y-1.699
G1 F1920 X-0.285 Y1.699 E6.35438
G0 F6000 X0.280 Y1.699
G1 F1920 X3.679 Y-1.699 E6.43430
G0 F6000 X4.198 Y-1.653
G1 F1920 X0.845 Y1.699 E6.51315
G0 F6000 X1.411 Y1.699
G1 F1920 X4.198 Y-1.087 E6.57868
G0 F6000 X4.198 Y-0.521
G1 F1920 X1.977 Y1.699 E6.63091
G0 F6000 X2.542 Y1.699
G1 F1920 X4.198 Y0.043 E6.66985
G0 F6000 X4.198 Y0.609
G1 F1920 X3.108 Y1.699 E6.69549
G0 F6000 X3.674 Y1.699
G1 F1920 X4.198 Y1.175 E6.70781
G0 F6000 X-1.411 Y-1.699
G1 F1920 X-4.198 Y1.087 E6.77335
G0 F6000 X-4.198 Y0.521
G1 F1920 X-1.977 Y-1.699 E6.82557
G0 F6000 X-2.542 Y-1.699
G1 F1920 X-4.198 Y-0.043 E6.86452
G0 F6000 X-4.198 Y-0.609
G1 F1920 X-3.108 Y-1.699 E6.89015
G0 F6000 X-3.674 Y-1.699
G1 F1920 X-4.198 Y-1.175 E6.90247
;LAYER:2
M106 S17
G0 F6000 X-4.400 Y-1.900 Z0.500
;TYPE:WALL-INNER
G1 F2760 X4.400 Y-1.900 E7.04882
G1 X4.400 Y1.900 E7.11201
G1 X-4.400 Y1.900 E7.25836
G1 X-4.400 Y-1.900 E7.32155
G0 F6000 X-4.800 Y-2.300
;TYPE:WALL-OUTER
G1 F2040 X4.800 Y-2.300 E7.48120
G1 X4.800 Y2.300 E7.55770
G1 X-4.800 Y2.300 E7.71735
G1 X-4.800 Y-2.300 E7.79385
G0 F6000 X-4.198 Y-1.653
;TYPE:SKIN
G1 F2160 X-0.845 Y1.699 E7.87269
G0 F6000 X-0.280 Y1.699
G1 F2160 X-3.679 Y-1.699 E7.95262
G0 F6000 X-3.114 Y-1.699
G1 F2160 X0.285 Y1.699 E8.03255
G0 F6000 X0.851 Y1.699
G1 F2160 X-2.548 Y-1.699 E8.11247
G0 F6000 X-1.982 Y-1.699
G1 F2160 X1.417 Y1.699 E8.19240
G0 F6000 X1.982 Y1.699
G1 F2160 X-1.417 Y-1.699 E8.27233
G0 F6000 X-0.851 Y-1.699
G1 F2160 X2.548 Y1.699 E8.35226
G0 F6000 X3.114 Y1.699
G1 F2160 X-0.285 Y-1.699 E8.43218
G0 F6000 X0.280 Y-1.699
G1 F2160 X3.679 Y1.699 E8.51211
G0 F6000 X4.198 Y1.653
G1 F2160 X0.845 Y-1.699 E8.59096
G0 F6000 X1.411 Y-1.699
G1 F2160 X4.198 Y1.087 E8.65649
G0 F6000 X4.198 Y0.521
G1 F2160 X1.977 Y-1.699 E8.70871
G0 F6000 X2.542 Y-1.699
G1 F2160 X4.198 Y-0.043 E8.74766
G0 F6000 X4.198 Y-0.609
G1 F2160 X3.108 Y-1.699 E8.77330
G0 F6000 X3.674 Y-1.699
G1 F2160 X4.198 Y-1.175 E8.78562
G0 F6000 X-1.411 Y1.699
G1 F2160 X-4.198 Y-1.087 E8.85115
G0 F6000 X-4.198 Y-0.521
G1 F2160 X-1.977 Y1.699 E8.90338
G0 F6000 X-2.542 Y1.699
G1 F2160 X-4.198 Y0.043 E8.94232
G0 F6000 X-4.198 Y0.609
G1 F2160 X-3.108 Y1.699 E8.96796
G0 F6000 X-3.674 Y1.699
G1 F2160 X-4.198 Y1.175 E8.98028
G92 E0
G1 F3000 E-16.00000
G1 Z0.700

T1
G92 E-14.5
G0 F6000 X-8.000 Y5.500
;TYPE:SUPPORT
G1 Z0.500
G1 F3000 E0.00000
G1 F2400 X-8.000 Y15.500 E0.16630
G1 X-18.000 Y15.500 E0.33260
G1 X-18.000 Y5.500 E0.49890
G1 X-8.000 Y5.500 E0.66520
G0 F6000 X-8.358 Y5.500
G1 F2400 X-7.998 Y5.860 E0.67367
G0 F6000 X-7.998 Y6.426
G1 F2400 X-8.924 Y5.500 E0.69545
G0 F6000 X-9.490 Y5.500
G1 F2400 X-7.998 Y6.991 E0.73053
G0 F6000 X-7.998 Y7.557
G1 F2400 X-10.055 Y5.500 E0.77890
G0 F6000 X-10.621 Y5.500
G1 F2400 X-7.998 Y8.123 E0.84059
G0 F6000 X-7.998 Y8.688
G1 F2400 X-11.187 Y5.500 E0.91558
G0 F6000 X-11.752 Y5.500
G1 F2400 X-7.998 Y9.254 E1.00387
G0 F6000 X-7.998 Y9.820
G1 F2400 X-12.318 Y5.500 E1.10547
G0 F6000 X-12.884 Y5.500
G1 F2400 X-7.998 Y10.385 E1.22037
G0 F6000 X-7.999 Y10.950
G1 F2400 X-13.449 Y5.500 E1.34854
G0 F6000 X-14.015 Y5.500
G1 F2400 X-7.999 Y11.516 E1.49003
G0 F6000 X-7.999 Y12.082
G1 F2400 X-14.581 Y5.500 E1.64483
G0 F6000 X-15.146 Y5.500
G1 F2400 X-7.999 Y12.648 E1.81293
G0 F6000 X-7.999 Y13.213
G1 F2400 X-15.712 Y5.500 E1.99433
G0 F6000 X-16.278 Y5.500
G1 F2400 X-7.999 Y13.779 E2.18903
G0 F6000 X-7.999 Y14.345
G1 F2400 X-16.843 Y5.500 E2.39704
G0 F6000 X-17.409 Y5.500
G1 F2400 X-7.999 Y14.910 E2.61835
G0 F6000 X-7.999 Y15.476
G1 F2400 X-17.975 Y5.500 E2.85297
G0 F6000 X-17.999 Y6.042
G1 F2400 X-8.541 Y15.499 E3.07540
G0 F6000 X-9.107 Y15.499
G1 F2400 X-17.999 Y6.607 E3.28452
G0 F6000 X-17.999 Y7.173
G1 F2400 X-9.673 Y15.499 E3.48034
G0 F6000 X-10.238 Y15.499
G1 F2400 X-17.999 Y7.739 E3.66285
G0 F6000 X-17.999 Y8.304
G1 F2400 X-10.804 Y15.499 E3.83207
G0 F6000 X-11.370 Y15.499
G1 F2400 X-17.999 Y8.870 E3.98797
G0 F6000 X-17.999 Y9.436
G1 F2400 X-11.935 Y15.499 E4.13058
G0 F6000 X-12.501 Y15.499
G1 F2400 X-17.999 Y10.002 E4.25987
G0 F6000 X-17.999 Y10.567
G1 F2400 X-13.067 Y15.499 E4.37586
G0 F6000 X-13.633 Y15.499
G1 F2400 X-17.999 Y11.133 E4.47855
G0 F6000 X-17.999 Y11.699
G1 F2400 X-14.198 Y15.499 E4.56793
G0 F6000 X-14.764 Y15.499
G1 F2400 X-17.999 Y12.264 E4.64401
G0 F6000 X-17.999 Y12.830
G1 F2400 X-15.330 Y15.499 E4.70678
G0 F6000 X-15.895 Y15.499
G1 F2400 X-17.999 Y13.396 E4.75625
G0 F6000 X-17.999 Y13.961
G1 F2400 X-16.461 Y15.499 E4.79242
G0 F6000 X-17.027 Y15.499
G1 F2400 X-17.999 Y14.527 E4.81528
G0 F6000 X-17.999 Y15.093
G1 F2400 X-17.592 Y15.499 E4.82484
G0 F6000 X-13.000 Y10.500
;LAYER:3
M106 S25
G92 E0
G1 F3000 E-16.00000
G1 Z0.700

T0
G92 E-14.5
G0 F6000 X-8.000 Y5.500 Z0.600
;TYPE:SUPPORT
G1 Z0.600
G1 F3000 E0.00000
G1 F2640 X-8.000 Y15.500 E0.16630
G1 X-18.000 Y15.500 E0.33260
G1 X-18.000 Y5.500 E0.49890
G1 X-8.000 Y5.500 E0.66520
G0 F6000 X-8.045 Y5.499
G1 F2640 X-17.999 Y15.453 E0.89931
G0 F6000 X-17.480 Y15.500
G1 F2640 X-7.999 Y6.019 E1.12228
G0 F6000 X-7.999 Y6.585
G1 F2640 X-16.914 Y15.500 E1.33195
G0 F6000 X-16.349 Y15.500
G1 F2640 X-7.999 Y7.150 E1.52833
G0 F6000 X-7.999 Y7.716
G1 F2640 X-15.783 Y15.500 E1.71140
G0 F6000 X-15.217 Y15.500
G1 F2640 X-7.999 Y8.282 E1.88115
G0 F6000 X-7.999 Y8.848
G1 F2640 X-14.651 Y15.500 E2.03760
G0 F6000 X-14.086 Y15.500
G1 F2640 X-7.999 Y9.413 E2.18076
G0 F6000 X-7.999 Y9.979
G1 F2640 X-13.520 Y15.500 E2.31060
G0 F6000 X-12.954 Y15.500
G1 F2640 X-8.000 Y10.545 E2.42712
G0 F6000 X-8.000 Y11.111
G1 F2640 X-12.389 Y15.500 E2.53035
G0 F6000 X-11.823 Y15.500
G1 F2640 X-8.000 Y11.677 E2.62026
G0 F6000 X-8.000 Y12.242
G1 F2640 X-11.257 Y15.500 E2.69687
G0 F6000 X-10.692 Y15.500
G1 F2640 X-8.000 Y12.808 E2.76018
G0 F6000 X-8.000 Y13.374
G1 F2640 X-10.126 Y15.500 E2.81018
G0 F6000 X-9.560 Y15.500
G1 F2640 X-8.000 Y13.939 E2.84688
G0 F6000 X-8.000 Y14.505
G1 F2640 X-8.995 Y15.500 E2.87028
G0 F6000 X-8.429 Y15.500
G1 F2640 X-8.000 Y15.071 E2.88037
G0 F6000 X-8.611 Y5.499
G1 F2640 X-17.999 Y14.888 E3.10117
G0 F6000 X-17.999 Y14.322
G1 F2640 X-9.176 Y5.499 E3.30868
G0 F6000 X-9.742 Y5.499
G1 F2640 X-17.999 Y13.756 E3.50287
G0 F6000 X-17.999 Y13.191
G1 F2640 X-10.308 Y5.499 E3.68376
G0 F6000 X-10.873 Y5.499
G1 F2640 X-17.999 Y12.625 E3.85136
G0 F6000 X-17.999 Y12.059
G1 F2640 X-11.439 Y5.499 E4.00564
G0 F6000 X-12.005 Y5.499
G1 F2640 X-17.999 Y11.494 E4.14662
G0 F6000 X-17.999 Y10.928
G1 F2640 X-12.570 Y5.499 E4.27430
G0 F6000 X-13.136 Y5.499
G1 F2640 X-17.999 Y10.362 E4.38867
G0 F6000 X-17.999 Y9.796
G1 F2640 X-13.702 Y5.499 E4.48973
G0 F6000 X-14.268 Y5.499
G1 F2640 X-17.999 Y9.231 E4.57749
G0 F6000 X-17.999 Y8.665
G1 F2640 X-14.833 Y5.499 E4.65195
G0 F6000 X-15.399 Y5.499
G1 F2640 X-17.999 Y8.099 E4.71310
G0 F6000 X-17.999 Y7.534
G1 F2640 X-15.965 Y5.499 E4.76094
G0 F6000 X-16.530 Y5.499
G1 F2640 X-17.999 Y6.968 E4.79549
G0 F6000 X-17.999 Y6.402
G1 F2640 X-17.096 Y5.499 E4.81673
G0 F6000 X-17.662 Y5.499
G1 F2640 X-17.999 Y5.837 E4.82467
G1 F3000 E-0.17533
G1 Z0.800
G0 F6000 X-13.000 Y10.500
G0 X-4.400 Y1.900
;TYPE:WALL-INNER
G1 Z0.600
G1 F3000 E4.82467
G1 F3180 X-4.400 Y-1.900 E4.88786
G1 X4.400 Y-1.900 E5.03421
G1 X4.400 Y1.900 E5.09740
G1 X-4.400 Y1.900 E5.24374
G0 F6000 X-4.800 Y2.300
;TYPE:WALL-OUTER
G1 F2100 X-4.800 Y-2.300 E5.32024
G1 X4.800 Y-2.300 E5.47989
G1 X4.800 Y2.300 E5.55639
G1 X-4.800 Y2.300 E5.71604
G0 F6000 X-4.198 Y1.653
;TYPE:SKIN
G1 F2280 X-0.845 Y-1.699 E5.79488
G0 F6000 X-0.280 Y-1.699
G1 F2280 X-3.679 Y1.699 E5.87481
G0 F6000 X-3.114 Y1.699
G1 F2280 X0.285 Y-1.699 E5.95474
G0 F6000 X0.851 Y-1.699
G1 F2280 X-2.548 Y1.699 E6.03467
G0 F6000 X-1.982 Y1.699
G1 F2280 X1.417 Y-1.699 E6.11459
G0 F6000 X1.982 Y-1.699
G1 F2280 X-1.417 Y1.699 E6.19452
G0 F6000 X-0.851 Y1.699
G1 F2280 X2.548 Y-1.699 E6.27445
G0 F6000 X3.114 Y-1.699
G1 F2280 X-0.285 Y1.699 E6.35438
G0 F6000 X0.280 Y1.699
G1 F2280 X3.679 Y-1.699 E6.43430
G0 F6000 X4.198 Y-1.653
G1 F2280 X0.845 Y1.699 E6.51315
G0 F6000 X1.411 Y1.699
G1 F2280 X4.198 Y-1.087 E6.57868
G0 F6000 X4.198 Y-0.521
G1 F2280 X1.977 Y1.699 E6.63091
G0 F6000 X2.542 Y1.699
