;Generated with Cura_SteamEngine 15.01
;Startcode BIBO printers
G90 ; absolute mode
G21 ; metric values
M82 ; Extruder in absolute mode
M107
G28
G1 Z9 F100
M190 S30
M109 T0 S180
T0
M302
G92 E0
G28
G1 Y0 F300 E0
G92 E0
T0
G92 E0
G1 Z2 F100
G1 X-15.0 Y-92.9 Z0.3 F1500.0		; move to start-line position
G1 X15.0 Y-92.9 Z0.3 F1000.0 E2		; draw 1st line
G1 X15.0 Y-92.6 Z0.3 F3000.0		; move to side a little
G1 X-15.0 Y-92.6 Z0.3 F1000.0 E4		; draw 2nd line
G1 X-15.0 Y-92.3 Z0.3 F3000.0		; move to side a little
G1 X15.0 Y-92.3 Z0.3 F1000.0 E6		; draw 3rd line
G1 X15.0 Y-92 Z0.3 F3000.0		; move to side a little
G1 X-15.0 Y-92 Z0.3 F1000.0 E8		; draw 4th line
G1 X-16.0 Y-91.7 Z0.3 F3000.0		; move to side a little
G1 X16.0 Y-91.7 Z0.3 F1000.0 E10		; draw 5th line
G1 E9.5 F2400				; retract filament 0.5mm
G92 E0
M117 BIBO Printing...
;Layer count: 98
;LAYER:0
M107
G0 F6000 X4.500 Y2.090 Z0.300
G0 X4.800 Y2.300
;TYPE:WALL-OUTER
G1 F1560 X-4.800 Y2.300 E0.47895
G1 X-4.800 Y-2.300 E0.70844
G1 X4.800 Y-2.300 E1.18739
G1 X4.800 Y2.300 E1.41688
G0 F6000 X4.599 Y2.053
;TYPE:SKIN
G1 F1560 X0.445 Y-2.100 E1.70993
G0 F6000 X-0.120 Y-2.100
G1 F1560 X4.080 Y2.100 E2.00627
G0 F6000 X3.514 Y2.100
G1 F1560 X-0.685 Y-2.100 E2.30256
G0 F6000 X-1.251 Y-2.100
G1 F1560 X2.948 Y2.100 E2.59886
G0 F6000 X2.382 Y2.100
G1 F1560 X-1.817 Y-2.100 E2.89516
G0 F6000 X-2.382 Y-2.100
G1 F1560 X1.817 Y2.100 E3.19146
G0 F6000 X1.251 Y2.100
G1 F1560 X-2.948 Y-2.100 E3.48775
G0 F6000 X-3.514 Y-2.100
G1 F1560 X0.685 Y2.100 E3.78405
G0 F6000 X0.120 Y2.100
G1 F1560 X-4.080 Y-2.100 E4.08038
G0 F6000 X-4.599 Y-2.053
G1 F1560 X-0.445 Y2.100 E4.37344
G0 F6000 X-1.011 Y2.100
G1 F1560 X-4.599 Y-1.487 E4.62655
G0 F6000 X-4.599 Y-0.922
G1 F1560 X-1.576 Y2.100 E4.83981
G0 F6000 X-2.142 Y2.100
G1 F1560 X-4.599 Y-0.356 E5.01313
G0 F6000 X-4.599 Y0.209
G1 F1560 X-2.708 Y2.100 E5.14655
G0 F6000 X-3.273 Y2.100
G1 F1560 X-4.599 Y0.774 E5.24010
G0 F6000 X-4.599 Y1.340
G1 F1560 X-3.839 Y2.100 E5.29372
G0 F6000 X-4.405 Y2.100
G1 F1560 X-4.599 Y1.906 E5.30741
G0 F6000 X1.011 Y-2.100
G1 F1560 X4.599 Y1.487 E5.56053
G0 F6000 X4.599 Y0.922
G1 F1560 X1.576 Y-2.100 E5.77378
G0 F6000 X2.142 Y-2.100
G1 F1560 X4.599 Y0.356 E5.94710
G0 F6000 X4.599 Y-0.209
G1 F1560 X2.708 Y-2.100 E6.08052
G0 F6000 X3.273 Y-2.100
G1 F1560 X4.599 Y-0.774 E6.17408
G0 F6000 X4.599 Y-1.340
G1 F1560 X3.839 Y-2.100 E6.22770
G0 F6000 X4.405 Y-2.100
G1 F1560 X4.599 Y-1.906 E6.24139
;LAYER:1
M106 S12
G0 F6000 X4.800 Y-2.300 Z0.400
;TYPE:WALL-OUTER
G1 F1500 X4.800 Y2.300 E6.31789
G1 X-4.800 Y2.300 E6.47754
G1 X-4.800 Y-2.300 E6.55403
G1 X4.800 Y-2.300 E6.71368
G0 F6000 X4.599 Y-2.053
;TYPE:SKIN
G1 F1560 X0.445 Y2.100 E6.81137
G0 F6000 X-0.120 Y2.100
G1 F1560 X4.080 Y-2.100 E6.91014
G0 F6000 X3.514 Y-2.100
G1 F1560 X-0.685 Y2.100 E7.00891
G0 F6000 X-1.251 Y2.100
G1 F1560 X2.948 Y-2.100 E7.10768
G0 F6000 X2.382 Y-2.100
G1 F1560 X-1.817 Y2.100 E7.20644
G0 F6000 X-2.382 Y2.100
G1 F1560 X1.817 Y-2.100 E7.30521
G0 F6000 X1.251 Y-2.100
G1 F1560 X-2.948 Y2.100 E7.40397
G0 F6000 X-3.514 Y2.100
G1 F1560 X0.685 Y-2.100 E7.50274
G0 F6000 X0.120 Y-2.100
G1 F1560 X-4.080 Y2.100 E7.60152
G0 F6000 X-4.599 Y2.053
G1 F1560 X-0.445 Y-2.100 E7.69920
G0 F6000 X-1.011 Y-2.100
G1 F1560 X-4.599 Y1.487 E7.78357
G0 F6000 X-4.599 Y0.922
G1 F1560 X-1.576 Y-2.100 E7.85466
G0 F6000 X-2.142 Y-2.100
G1 F1560 X-4.599 Y0.356 E7.91243
G0 F6000 X-4.599 Y-0.209
G1 F1560 X-2.708 Y-2.100 E7.95690
G0 F6000 X-3.273 Y-2.100
G1 F1560 X-4.599 Y-0.774 E7.98809
G0 F6000 X-4.599 Y-1.340
G1 F1560 X-3.839 Y-2.100 E8.00596
G0 F6000 X-4.405 Y-2.100
G1 F1560 X-4.599 Y-1.906 E8.01053
G0 F6000 X1.011 Y2.000
G0 X1.011 Y2.100
G1 F1560 X4.599 Y-1.487 E8.09490
G0 F6000 X4.599 Y-0.922
G1 F1560 X1.576 Y2.100 E8.16598
G0 F6000 X2.142 Y2.100
G1 F1560 X4.599 Y-0.356 E8.22376
G0 F6000 X4.599 Y0.209
G1 F1560 X2.708 Y2.100 E8.26823
G0 F6000 X3.273 Y2.100
G1 F1560 X4.599 Y0.774 E8.29942
G0 F6000 X4.599 Y1.340
G1 F1560 X3.839 Y2.100 E8.31729
G0 F6000 X4.405 Y2.100
G1 F1560 X4.599 Y1.906 E8.32185
;LAYER:2
M106 S28
G0 F6000 X4.800 Y2.300 Z0.500
;TYPE:WALL-OUTER
G1 F1440 X-4.800 Y2.300 E8.48150
G1 X-4.800 Y-2.300 E8.55800
G1 X4.800 Y-2.300 E8.71765
G1 X4.800 Y2.300 E8.79415
G0 F6000 X4.599 Y2.053
;TYPE:SKIN
G1 F1560 X0.445 Y-2.100 E8.89183
G0 F6000 X-0.120 Y-2.100
G1 F1560 X4.080 Y2.100 E8.99061
G0 F6000 X3.514 Y2.100
G1 F1560 X-0.685 Y-2.100 E9.08937
G0 F6000 X-1.251 Y-2.100
G1 F1560 X2.948 Y2.100 E9.18814
G0 F6000 X2.382 Y2.100
G1 F1560 X-1.817 Y-2.100 E9.28691
G0 F6000 X-2.382 Y-2.100
G1 F1560 X1.817 Y2.100 E9.38567
G0 F6000 X1.251 Y2.100
G1 F1560 X-2.948 Y-2.100 E9.48444
G0 F6000 X-3.514 Y-2.100
G1 F1560 X0.685 Y2.100 E9.58320
G0 F6000 X0.120 Y2.100
G1 F1560 X-4.080 Y-2.100 E9.68198
G0 F6000 X-4.599 Y-2.053
G1 F1560 X-0.445 Y2.100 E9.77966
G0 F6000 X-1.011 Y2.100
G1 F1560 X-4.599 Y-1.487 E9.86404
G0 F6000 X-4.599 Y-0.922
G1 F1560 X-1.576 Y2.100 E9.93512
G0 F6000 X-2.142 Y2.100
G1 F1560 X-4.599 Y-0.356 E9.99289
G0 F6000 X-4.599 Y0.209
G1 F1560 X-2.708 Y2.100 E10.03737
G0 F6000 X-3.273 Y2.100
G1 F1560 X-4.599 Y0.774 E10.06855
G0 F6000 X-4.599 Y1.340
G1 F1560 X-3.839 Y2.100 E10.08643
G0 F6000 X-4.405 Y2.100
G1 F1560 X-4.599 Y1.906 E10.09099
G0 F6000 X1.011 Y-2.100
G1 F1560 X4.599 Y1.487 E10.17536
G0 F6000 X4.599 Y0.922
G1 F1560 X1.576 Y-2.100 E10.24645
G0 F6000 X2.142 Y-2.100
G1 F1560 X4.599 Y0.356 E10.30422
G0 F6000 X4.599 Y-0.209
G1 F1560 X2.708 Y-2.100 E10.34869
G0 F6000 X3.273 Y-2.100
G1 F1560 X4.599 Y-0.774 E10.37988
G0 F6000 X4.599 Y-1.340
G1 F1560 X3.839 Y-2.100 E10.39775
G0 F6000 X4.405 Y-2.100
G1 F1560 X4.599 Y-1.906 E10.40232
;LAYER:3
M106 S40
G0 F6000 X4.800 Y-2.300 Z0.600
;TYPE:WALL-OUTER
G1 F1440 X4.800 Y2.300 E10.47881
G1 X-4.800 Y2.300 E10.63846
G1 X-4.800 Y-2.300 E10.71496
G1 X4.800 Y-2.300 E10.87461
G0 F6000 X4.599 Y-2.053
;TYPE:SKIN
G1 F1560 X0.445 Y2.100 E10.97229
G0 F6000 X-0.120 Y2.100
G1 F1560 X4.080 Y-2.100 E11.07107
G0 F6000 X3.514 Y-2.100
G1 F1560 X-0.685 Y2.100 E11.16984
G0 F6000 X-1.251 Y2.100
G1 F1560 X2.948 Y-2.100 E11.26860
G0 F6000 X2.382 Y-2.100
G1 F1560 X-1.817 Y2.100 E11.36737
G0 F6000 X-2.382 Y2.100
G1 F1560 X1.817 Y-2.100 E11.46613
G0 F6000 X1.251 Y-2.100
G1 F1560 X-2.948 Y2.100 E11.56490
G0 F6000 X-3.514 Y2.100
G1 F1560 X0.685 Y-2.100 E11.66367
G0 F6000 X0.120 Y-2.100
G1 F1560 X-4.080 Y2.100 E11.76244
G0 F6000 X-4.599 Y2.053
G1 F1560 X-0.445 Y-2.100 E11.86013
G0 F6000 X-1.011 Y-2.100
G1 F1560 X-4.599 Y1.487 E11.94450
G0 F6000 X-4.599 Y0.922
G1 F1560 X-1.576 Y-2.100 E12.01558
G0 F6000 X-2.142 Y-2.100
G1 F1560 X-4.599 Y0.356 E12.07336
G0 F6000 X-4.599 Y-0.209
G1 F1560 X-2.708 Y-2.100 E12.11783
G0 F6000 X-3.273 Y-2.100
G1 F1560 X-4.599 Y-0.774 E12.14902
G0 F6000 X-4.599 Y-1.340
G1 F1560 X-3.839 Y-2.100 E12.16689
G0 F6000 X-4.405 Y-2.100
G1 F1560 X-4.599 Y-1.906 E12.17145
G0 F6000 X1.011 Y2.000
G0 X1.011 Y2.100
G1 F1560 X4.599 Y-1.487 E12.25583
G0 F6000 X4.599 Y-0.922
G1 F1560 X1.576 Y2.100 E12.32691
G0 F6000 X2.142 Y2.100
G1 F1560 X4.599 Y-0.356 E12.38468
G0 F6000 X4.599 Y0.209
G1 F1560 X2.708 Y2.100 E12.42916
G0 F6000 X3.273 Y2.100
G1 F1560 X4.599 Y0.774 E12.46034
G0 F6000 X4.599 Y1.340
G1 F1560 X3.839 Y2.100 E12.47822
G0 F6000 X4.405 Y2.100
G1 F1560 X4.599 Y1.906 E12.48278
;LAYER:4
M106 S56
G0 F6000 X4.800 Y2.300 Z0.700
;TYPE:WALL-OUTER
G1 F1380 X-4.800 Y2.300 E12.64243
G1 X-4.800 Y-2.300 E12.71893
G1 X4.800 Y-2.300 E12.87857
G1 X4.800 Y2.300 E12.95507
G0 F6000 X4.599 Y2.053
;TYPE:SKIN
G1 F1560 X0.445 Y-2.100 E13.05276
G0 F6000 X-0.120 Y-2.100
G1 F1560 X4.080 Y2.100 E13.15153
G0 F6000 X3.514 Y2.100
G1 F1560 X-0.685 Y-2.100 E13.25030
G0 F6000 X-1.251 Y-2.100
G1 F1560 X2.948 Y2.100 E13.34907
G0 F6000 X2.382 Y2.100
G1 F1560 X-1.817 Y-2.100 E13.44783
G0 F6000 X-2.382 Y-2.100
G1 F1560 X1.817 Y2.100 E13.54660
G0 F6000 X1.251 Y2.100
G1 F1560 X-2.948 Y-2.100 E13.64536
G0 F6000 X-3.514 Y-2.100
G1 F1560 X0.685 Y2.100 E13.74413
G0 F6000 X0.120 Y2.100
G1 F1560 X-4.080 Y-2.100 E13.84291
G0 F6000 X-4.599 Y-2.053
G1 F1560 X-0.445 Y2.100 E13.94059
G0 F6000 X-1.011 Y2.100
G1 F1560 X-4.599 Y-1.487 E14.02496
G0 F6000 X-4.599 Y-0.922
G1 F1560 X-1.576 Y2.100 E14.09605
G0 F6000 X-2.142 Y2.100
G1 F1560 X-4.599 Y-0.356 E14.15382
G0 F6000 X-4.599 Y0.209
G1 F1560 X-2.708 Y2.100 E14.19829
G0 F6000 X-3.273 Y2.100
G1 F1560 X-4.599 Y0.774 E14.22948
G0 F6000 X-4.599 Y1.340
G1 F1560 X-3.839 Y2.100 E14.24735
G0 F6000 X-4.405 Y2.100
G1 F1560 X-4.599 Y1.906 E14.25192
G0 F6000 X1.011 Y-2.100
G1 F1560 X4.599 Y1.487 E14.33629
G0 F6000 X4.599 Y0.922
G1 F1560 X1.576 Y-2.100 E14.40737
G0 F6000 X2.142 Y-2.100
G1 F1560 X4.599 Y0.356 E14.46515
G0 F6000 X4.599 Y-0.209
G1 F1560 X2.708 Y-2.100 E14.50962
G0 F6000 X3.273 Y-2.100
G1 F1560 X4.599 Y-0.774 E14.54081
G0 F6000 X4.599 Y-1.340
G1 F1560 X3.839 Y-2.100 E14.55868
G0 F6000 X4.405 Y-2.100
G1 F1560 X4.599 Y-1.906 E14.56324
;LAYER:5
M106 S68
G0 F6000 X4.800 Y-2.300 Z0.800
;TYPE:WALL-OUTER
G1 F1380 X4.800 Y2.300 E14.63974
G1 X-4.800 Y2.300 E14.79939
G1 X-4.800 Y-2.300 E14.87589
G1 X4.800 Y-2.300 E15.03554
G0 F6000 X4.599 Y-2.053
;TYPE:SKIN
G1 F1560 X0.445 Y2.100 E15.13322
G0 F6000 X-0.120 Y2.100
G1 F1560 X4.080 Y-2.100 E15.23200
G0 F6000 X3.514 Y-2.100
G1 F1560 X-0.685 Y2.100 E15.33076
G0 F6000 X-1.251 Y2.100
G1 F1560 X2.948 Y-2.100 E15.42953
G0 F6000 X2.382 Y-2.100
G1 F1560 X-1.817 Y2.100 E15.52830
G0 F6000 X-2.382 Y2.100
G1 F1560 X1.817 Y-2.100 E15.62706
G0 F6000 X1.251 Y-2.100
G1 F1560 X-2.948 Y2.100 E15.72583
G0 F6000 X-3.514 Y2.100
G1 F1560 X0.685 Y-2.100 E15.82459
G0 F6000 X0.120 Y-2.100
G1 F1560 X-4.080 Y2.100 E15.92337
G0 F6000 X-4.599 Y2.053
G1 F1560 X-0.445 Y-2.100 E16.02105
G0 F6000 X-1.011 Y-2.100
G1 F1560 X-4.599 Y1.487 E16.10543
G0 F6000 X-4.599 Y0.922
G1 F1560 X-1.576 Y-2.100 E16.17651
G0 F6000 X-2.142 Y-2.100
G1 F1560 X-4.599 Y0.356 E16.23428
G0 F6000 X-4.599 Y-0.209
G1 F1560 X-2.708 Y-2.100 E16.27876
G0 F6000 X-3.273 Y-2.100
G1 F1560 X-4.599 Y-0.774 E16.30994
G0 F6000 X-4.599 Y-1.340
G1 F1560 X-3.839 Y-2.100 E16.32782
G0 F6000 X-4.405 Y-2.100
G1 F1560 X-4.599 Y-1.906 E16.33238
G0 F6000 X1.011 Y2.000
G0 X1.011 Y2.100
G1 F1560 X4.599 Y-1.487 E16.41675
G0 F6000 X4.599 Y-0.922
G1 F1560 X1.576 Y2.100 E16.48784
G0 F6000 X2.142 Y2.100
G1 F1560 X4.599 Y-0.356 E16.54561
G0 F6000 X4.599 Y0.209
G1 F1560 X2.708 Y2.100 E16.59008
G0 F6000 X3.273 Y2.100
G1 F1560 X4.599 Y0.774 E16.62127
G0 F6000 X4.599 Y1.340
G1 F1560 X3.839 Y2.100 E16.63914
G0 F6000 X4.405 Y2.100
G1 F1560 X4.599 Y1.906 E16.64371
;LAYER:6
M106 S84
G0 F6000 X4.800 Y2.300 Z0.900
;TYPE:WALL-OUTER
G1 F1380 X-4.800 Y2.300 E16.80335
G1 X-4.800 Y-2.300 E16.87985
G1 X4.800 Y-2.300 E17.03950
G1 X4.800 Y2.300 E17.11600
G0 F6000 X4.599 Y2.053
;TYPE:SKIN
G1 F1560 X0.445 Y-2.100 E17.21368
G0 F6000 X-0.120 Y-2.100
G1 F1560 X4.080 Y2.100 E17.31246
G0 F6000 X3.514 Y2.100
G1 F1560 X-0.685 Y-2.100 E17.41123
G0 F6000 X-1.251 Y-2.100
G1 F1560 X2.948 Y2.100 E17.50999
G0 F6000 X2.382 Y2.100
G1 F1560 X-1.817 Y-2.100 E17.60876
G0 F6000 X-2.382 Y-2.100
G1 F1560 X1.817 Y2.100 E17.70752
G0 F6000 X1.251 Y2.100
G1 F1560 X-2.948 Y-2.100 E17.80629
G0 F6000 X-3.514 Y-2.100
G1 F1560 X0.685 Y2.100 E17.90506
G0 F6000 X0.120 Y2.100
G1 F1560 X-4.080 Y-2.100 E18.00383
G0 F6000 X-4.599 Y-2.053
G1 F1560 X-0.445 Y2.100 E18.10152
G0 F6000 X-1.011 Y2.100
G1 F1560 X-4.599 Y-1.487 E18.18589
G0 F6000 X-4.599 Y-0.922
G1 F1560 X-1.576 Y2.100 E18.25697
G0 F6000 X-2.142 Y2.100
G1 F1560 X-4.599 Y-0.356 E18.31475
G0 F6000 X-4.599 Y0.209
G1 F1560 X-2.708 Y2.100 E18.35922
G0 F6000 X-3.273 Y2.100
G1 F1560 X-4.599 Y0.774 E18.39041
G0 F6000 X-4.599 Y1.340
G1 F1560 X-3.839 Y2.100 E18.40828
G0 F6000 X-4.405 Y2.100
G1 F1560 X-4.599 Y1.906 E18.41284
G0 F6000 X1.011 Y-2.100
G1 F1560 X4.599 Y1.487 E18.49722
G0 F6000 X4.599 Y0.922
G1 F1560 X1.576 Y-2.100 E18.56830
G0 F6000 X2.142 Y-2.100
G1 F1560 X4.599 Y0.356 E18.62607
G0 F6000 X4.599 Y-0.209
G1 F1560 X2.708 Y-2.100 E18.67055
G0 F6000 X3.273 Y-2.100
G1 F1560 X4.599 Y-0.774 E18.70173
G0 F6000 X4.599 Y-1.340
G1 F1560 X3.839 Y-2.100 E18.71961
G0 F6000 X4.405 Y-2.100
G1 F1560 X4.599 Y-1.906 E18.72417
;LAYER:7
M106 S96
G0 F6000 X4.800 Y-2.300 Z1.000
;TYPE:WALL-OUTER
G1 F1380 X4.800 Y2.300 E18.80067
G1 X-4.800 Y2.300 E18.96032
G1 X-4.800 Y-2.300 E19.03681
G1 X4.800 Y-2.300 E19.19646
G0 F6000 X4.599 Y-2.053
;TYPE:SKIN
G1 F1560 X0.445 Y2.100 E19.29415
G0 F6000 X-0.120 Y2.100
G1 F1560 X4.080 Y-2.100 E19.39292
G0 F6000 X3.514 Y-2.100
G1 F1560 X-0.685 Y2.100 E19.49169
G0 F6000 X-1.251 Y2.100
G1 F1560 X2.948 Y-2.100 E19.59046
G0 F6000 X2.382 Y-2.100
G1 F1560 X-1.817 Y2.100 E19.68922
G0 F6000 X-2.382 Y2.100
G1 F1560 X1.817 Y-2.100 E19.78799
G0 F6000 X1.251 Y-2.100
G1 F1560 X-2.948 Y2.100 E19.88675
G0 F6000 X-3.514 Y2.100
G1 F1560 X0.685 Y-2.100 E19.98552
G0 F6000 X0.120 Y-2.100
G1 F1560 X-4.080 Y2.100 E20.08430
G0 F6000 X-4.599 Y2.053
G1 F1560 X-0.445 Y-2.100 E20.18198
G0 F6000 X-1.011 Y-2.100
G1 F1560 X-4.599 Y1.487 E20.26635
G0 F6000 X-4.599 Y0.922
G1 F1560 X-1.576 Y-2.100 E20.33744
G0 F6000 X-2.142 Y-2.100
G1 F1560 X-4.599 Y0.356 E20.39521
G0 F6000 X-4.599 Y-0.209
G1 F1560 X-2.708 Y-2.100 E20.43968
G0 F6000 X-3.273 Y-2.100
G1 F1560 X-4.599 Y-0.774 E20.47087
G0 F6000 X-4.599 Y-1.340
G1 F1560 X-3.839 Y-2.100 E20.48874
G0 F6000 X-4.405 Y-2.100
G1 F1560 X-4.599 Y-1.906 E20.49331
G0 F6000 X1.011 Y2.000
G0 X1.011 Y2.100
G1 F1560 X4.599 Y-1.487 E20.57768
G0 F6000 X4.599 Y-0.922
G1 F1560 X1.576 Y2.100 E20.64876
G0 F6000 X2.142 Y2.100
G1 F1560 X4.599 Y-0.356 E20.70654
G0 F6000 X4.599 Y0.209
G1 F1560 X2.708 Y2.100 E20.75101
G0 F6000 X3.273 Y2.100
G1 F1560 X4.599 Y0.774 E20.78220
G0 F6000 X4.599 Y1.340
G1 F1560 X3.839 Y2.100 E20.80007
G0 F6000 X4.405 Y2.100
G1 F1560 X4.599 Y1.906 E20.80463
;LAYER:8
M106 S112
G0 F6000 X4.800 Y2.300 Z1.100
;TYPE:WALL-OUTER
G1 F1380 X-4.800 Y2.300 E20.96428
G1 X-4.800 Y-2.300 E21.04078
G1 X4.800 Y-2.300 E21.20043
G1 X4.800 Y2.300 E21.27693
G0 F6000 X4.599 Y2.053
;TYPE:SKIN
G1 F1560 X0.445 Y-2.100 E21.37461
G0 F6000 X-0.120 Y-2.100
G1 F1560 X4.080 Y2.100 E21.47339
G0 F6000 X3.514 Y2.100
G1 F1560 X-0.685 Y-2.100 E21.57215
G0 F6000 X-1.251 Y-2.100
G1 F1560 X2.948 Y2.100 E21.67092
G0 F6000 X2.382 Y2.100
G1 F1560 X-1.817 Y-2.100 E21.76968
G0 F6000 X-2.382 Y-2.100
G1 F1560 X1.817 Y2.100 E21.86845
G0 F6000 X1.251 Y2.100
G1 F1560 X-2.948 Y-2.100 E21.96722
G0 F6000 X-3.514 Y-2.100
G1 F1560 X0.685 Y2.100 E22.06598
G0 F6000 X0.120 Y2.100
G1 F1560 X-4.080 Y-2.100 E22.16476
G0 F6000 X-4.599 Y-2.053
G1 F1560 X-0.445 Y2.100 E22.26244
G0 F6000 X-1.011 Y2.100
G1 F1560 X-4.599 Y-1.487 E22.34682
G0 F6000 X-4.599 Y-0.922
G1 F1560 X-1.576 Y2.100 E22.41790
G0 F6000 X-2.142 Y2.100
G1 F1560 X-4.599 Y-0.356 E22.47567
G0 F6000 X-4.599 Y0.209
G1 F1560 X-2.708 Y2.100 E22.52015
G0 F6000 X-3.273 Y2.100
G1 F1560 X-4.599 Y0.774 E22.55133
G0 F6000 X-4.599 Y1.340
G1 F1560 X-3.839 Y2.100 E22.56921
G0 F6000 X-4.405 Y2.100
G1 F1560 X-4.599 Y1.906 E22.57377
G0 F6000 X1.011 Y-2.100
G1 F1560 X4.599 Y1.487 E22.65814
G0 F6000 X4.599 Y0.922
G1 F1560 X1.576 Y-2.100 E22.72923
G0 F6000 X2.142 Y-2.100
G1 F1560 X4.599 Y0.356 E22.78700
G0 F6000 X4.599 Y-0.209
G1 F1560 X2.708 Y-2.100 E22.83147
G0 F6000 X3.273 Y-2.100
G1 F1560 X4.599 Y-0.774 E22.86266
G0 F6000 X4.599 Y-1.340
G1 F1560 X3.839 Y-2.100 E22.88053
G0 F6000 X4.405 Y-2.100
G1 F1560 X4.599 Y-1.906 E22.88510
;LAYER:9
M106 S127
G0 F6000 X4.800 Y-2.300 Z1.200
;TYPE:WALL-OUTER
G1 F1380 X4.800 Y2.300 E22.96159
G1 X-4.800 Y2.300 E23.12124
G1 X-4.800 Y-2.300 E23.19774
G1 X4.800 Y-2.300 E23.35739
G0 F6000 X4.599 Y-2.053
;TYPE:SKIN
G1 F1560 X0.445 Y2.100 E23.45507
G0 F6000 X-0.120 Y2.100
